; generated by Slic3r 1.2.9 on 2016-12-26 at 13:35:58

; external perimeters extrusion width = 0.50mm
; perimeters extrusion width = 0.72mm
; infill extrusion width = 0.72mm
; solid infill extrusion width = 0.72mm
; top infill extrusion width = 0.72mm

M107
M104 S200 ; set temperature
G28 ; home all axes
G1 Z5 F5000 ; lift nozzle

M109 S200 ; wait for temperature to be reached
G21 ; set units to millimeters
G90 ; use absolute coordinates
M82 ; use absolute distances for extrusion
G92 E0
G1 Z0.500 F7800.000
G1 E-2.00000 F2400.00000
G92 E0
G1 X90.649 Y90.616 F7800.000
G1 E2.00000 F2400.00000
G1 X91.165 Y90.130 E2.04472 F1800.000
G1 X91.739 Y89.643 E2.09230
G1 X92.284 Y89.233 E2.13535
G1 X92.930 Y88.796 E2.18461
G1 X93.494 Y88.462 E2.22598
G1 X94.207 Y88.085 E2.27694
G1 X94.780 Y87.826 E2.31661
G1 X95.409 Y87.575 E2.35936
G1 X96.127 Y87.333 E2.40724
G1 X96.956 Y87.105 E2.46153
G1 X97.520 Y86.988 E2.49787
G1 X98.384 Y86.849 E2.55315
G1 X98.941 Y86.796 E2.58851
G1 X99.842 Y86.751 E2.64545
G1 X100.376 Y86.759 E2.67915
G1 X101.314 Y86.815 E2.73849 F1800.000
G1 X101.805 Y86.878 E2.76978
G1 X102.746 Y87.038 E2.83005
G1 X103.866 Y87.331 E2.90316
G1 X104.585 Y87.573 E2.95103
G1 X105.530 Y87.959 E3.01547
G1 X106.808 Y88.633 E3.10673
G1 X107.710 Y89.230 E3.17502
G1 X108.313 Y89.689 E3.22289
G1 X109.125 Y90.393 E3.29076
G1 X110.114 Y91.441 E3.38172
G1 X110.989 Y92.599 E3.47339
G1 X111.520 Y93.464 E3.53748
G1 X111.875 Y94.134 E3.58535
G1 X112.340 Y95.177 E3.65749
G1 X112.656 Y96.094 E3.71872
G1 X112.790 Y96.544 E3.74841
G1 X113.004 Y97.486 E3.80934
G1 X113.093 Y97.975 E3.84079
G1 X113.199 Y98.907 E3.89997
G1 X113.240 Y99.664 E3.94784
G1 X113.221 Y100.861 E4.02343
G1 X113.126 Y101.771 E4.08120
G1 X113.047 Y102.301 E4.11510
G1 X112.857 Y103.180 E4.17183
G1 X112.717 Y103.715 E4.20679
G1 X112.438 Y104.552 E4.26245
G1 X112.157 Y105.256 E4.31032
G1 X111.873 Y105.870 E4.35307
G1 X111.604 Y106.393 E4.39019
G1 X111.169 Y107.120 E4.44369
G1 X110.835 Y107.623 E4.48184
G1 X110.333 Y108.286 E4.53432
G1 X109.842 Y108.863 E4.58219
G1 X109.376 Y109.355 E4.62493
G1 X108.917 Y109.797 E4.66522
G1 X108.310 Y110.314 E4.71556
G1 X107.792 Y110.713 E4.75686
G1 X107.146 Y111.152 E4.80618
G1 X106.573 Y111.501 E4.84854
G1 X105.898 Y111.860 E4.89680
G1 X105.210 Y112.178 E4.94467
G1 X104.581 Y112.428 E4.98741
G1 X103.913 Y112.655 E5.03193
G1 X103.210 Y112.851 E5.07803
G1 X102.505 Y113.007 E5.12362
G1 X101.802 Y113.123 E5.16865
G1 X101.068 Y113.203 E5.21526
G1 X100.372 Y113.241 E5.25926
G1 X99.626 Y113.241 E5.30639
G1 X98.950 Y113.204 E5.34914
G1 X98.191 Y113.122 E5.39734
G1 X96.989 Y112.903 E5.47450
G1 X96.125 Y112.667 E5.53104
G1 X95.418 Y112.428 E5.57816
G1 X94.789 Y112.178 E5.62091
G1 X94.096 Y111.858 E5.66911
G1 X93.176 Y111.359 E5.73521
G1 X91.976 Y110.545 E5.82676
G1 X90.863 Y109.597 E5.91908
G1 X90.152 Y108.860 E5.98374
G1 X89.661 Y108.282 E6.03161
G1 X88.983 Y107.364 E6.10367
G1 X88.477 Y106.535 E6.16499
G1 X88.240 Y106.106 E6.19597
G1 X87.838 Y105.251 E6.25562
G1 X87.558 Y104.546 E6.30350
G1 X87.188 Y103.382 E6.38064
G1 X86.993 Y102.513 E6.43687
G1 X86.894 Y101.951 E6.47293
G1 X86.798 Y101.092 E6.52751
G1 X86.757 Y100.335 E6.57538
G1 X86.757 Y99.658 E6.61813
G1 X86.787 Y99.022 E6.65830
G1 X86.872 Y98.228 E6.70876
G1 X86.973 Y97.585 E6.74985
G1 X87.141 Y96.819 E6.79939
G1 X87.344 Y96.088 E6.84727
G1 X87.560 Y95.447 E6.89002
G1 X87.824 Y94.781 E6.93524
G1 X88.126 Y94.128 E6.98064
G1 X88.467 Y93.482 E7.02682
G1 X88.830 Y92.878 E7.07127
G1 X89.249 Y92.261 E7.11840
G1 X89.673 Y91.703 E7.16263
G1 X90.149 Y91.144 E7.20902
G1 X90.598 Y90.670 E7.25020
G1 E5.25020 F2400.00000
G92 E0
G1 X100.696 Y105.819 F7800.000
G1 E2.00000 F2400.00000
G1 X99.999 Y105.857 E2.04406 F1800.000
G1 X99.302 Y105.819 E2.08812
G1 X99.655 Y105.384 E2.12350
G1 X99.962 Y104.715 E2.17000
G1 X99.806 Y104.715 E2.17985
G1 X99.567 Y104.002 E2.22728
G1 X99.999 Y104.057 E2.25476
G1 X100.430 Y104.002 E2.28223
G1 X100.191 Y104.715 E2.32966
G1 X100.035 Y104.715 E2.33952
G1 X100.342 Y105.384 E2.38601
G1 X100.648 Y105.761 E2.41669
G1 X100.212 Y105.691 F7800.000
G1 E0.41669 F2400.00000
G92 E0
G1 X102.800 Y96.424 F7800.000
G1 X102.800 Y96.424 F7800.000
G1 X97.840 Y104.192 F7800.000
G1 E2.00000 F2400.00000
G1 X97.801 Y104.927 E2.04650 F1800.000
G1 X97.920 Y105.518 E2.08455
G1 X96.646 Y104.842 E2.17558
G1 X97.192 Y104.608 E2.21314
G1 X97.775 Y104.158 E2.25964
G1 X97.637 Y104.085 E2.26949
G1 X97.742 Y103.435 E2.31104
G1 X98.521 Y103.744 E2.36399
G1 X97.978 Y104.264 E2.41147
G1 X97.907 Y104.226 E2.41659
G1 X97.350 Y104.094 F7800.000
G1 E0.41659 F2400.00000
G92 E0
G1 X101.344 Y95.673 F7800.000
G1 X101.344 Y95.673 F7800.000
G1 X96.098 Y102.648 F7800.000
G1 E2.00000 F2400.00000
G1 X96.009 Y102.520 E2.00986 F1800.000
G1 X96.413 Y101.980 E2.05240
G1 X96.950 Y102.629 E2.10556
G1 X96.228 Y102.837 E2.15298
G1 X96.139 Y102.708 E2.16283
G1 X95.763 Y103.341 E2.20933
G1 X95.604 Y103.883 E2.24498
G1 X95.153 Y103.290 E2.29200
G1 X94.817 Y102.733 E2.33313
G1 X95.373 Y102.776 E2.36832
G1 X96.024 Y102.661 E2.41008
G1 X96.238 Y102.579 F7800.000
G1 E0.41008 F2400.00000
G92 E0
G1 X101.344 Y95.673 F7800.000
G1 X101.344 Y95.673 F7800.000
G1 X95.323 Y100.605 F7800.000
G1 E2.00000 F2400.00000
G1 X94.696 Y100.990 E2.04650 F1800.000
G1 X94.271 Y101.429 E2.08503
G1 X94.115 Y99.995 E2.17609
G1 X94.613 Y100.308 E2.21321
G1 X95.314 Y100.532 E2.25971
G1 X95.295 Y100.377 E2.26956
G1 X95.915 Y100.082 E2.31289
G1 X96.107 Y101.047 E2.37501
G1 X95.648 Y100.823 E2.40726
G1 X95.342 Y100.759 E2.42702
G1 X95.332 Y100.679 E2.43214
G1 X95.125 Y100.146 F7800.000
G1 E0.43214 F2400.00000
G92 E0
G1 X101.344 Y95.673 F7800.000
G1 X101.344 Y95.673 F7800.000
G1 X95.578 Y98.362 F7800.000
G1 E2.00000 F2400.00000
G1 X94.843 Y98.412 E2.04650 F1800.000
G1 X94.302 Y98.591 E2.08247
G1 X94.557 Y97.833 E2.13298
G1 X94.808 Y97.291 E2.17070
G1 X95.087 Y97.770 E2.20569
G1 X95.603 Y98.294 E2.25219
G1 X95.659 Y98.148 E2.26204
G1 X95.972 Y98.160 E2.28180
G1 X96.394 Y98.069 E2.30910
G1 X96.057 Y99.106 E2.37792
G1 X95.764 Y98.707 E2.40918
G1 X95.522 Y98.508 E2.42894
G1 X95.551 Y98.432 E2.43406
G1 X95.615 Y97.864 F7800.000
G1 E0.43406 F2400.00000
G92 E0
G1 X101.344 Y95.673 F7800.000
G1 X101.344 Y95.673 F7800.000
G1 X96.845 Y96.495 F7800.000
G1 E2.00000 F2400.00000
G1 X96.171 Y96.198 E2.04650 F1800.000
G1 X95.560 Y96.097 E2.08564
G1 X96.660 Y95.162 E2.17682
G1 X96.686 Y95.742 E2.21352
G1 X96.900 Y96.447 E2.26001
G1 X97.017 Y96.343 E2.26987
G1 X97.288 Y96.499 E2.28963
G1 X97.719 Y96.619 E2.31790
G1 X96.923 Y97.367 E2.38688
G1 X96.850 Y96.887 E2.41753
G1 X96.728 Y96.599 E2.43730
G1 X96.789 Y96.545 E2.44242
G1 X97.110 Y96.071 F7800.000
G1 X101.344 Y95.673 F7800.000
G1 X101.344 Y95.673 F7800.000
G1 X98.835 Y95.431 F7800.000
G1 X98.377 Y94.855 E2.48891 F1800.000
G1 X97.918 Y94.508 E2.52525
G1 X98.742 Y94.279 E2.57926
G1 X99.279 Y94.191 E2.61359
G1 X99.044 Y94.690 E2.64840
G1 X98.906 Y95.414 E2.69490
G1 X99.057 Y95.376 E2.70475
G1 X99.225 Y95.641 E2.72452
G1 X99.561 Y95.956 E2.75359
G1 X98.499 Y96.238 E2.82294
G1 X98.658 Y95.780 E2.85350
G1 X98.683 Y95.468 E2.87327
G1 X98.762 Y95.449 E2.87839
G1 X99.267 Y95.179 F7800.000
G1 X100.436 Y95.957 F7800.000
G1 X100.772 Y95.641 E2.90754 F1800.000
G1 X100.907 Y95.428 E2.92343
G1 X100.985 Y95.189 E2.93933
G1 X101.001 Y94.938 E2.95522
G1 X100.954 Y94.690 E2.97111
G1 X100.719 Y94.192 E3.00589
G1 X101.262 Y94.281 E3.04063
G1 X101.873 Y94.451 E3.08068
G1 X102.463 Y94.686 E3.12076
G1 X103.023 Y94.984 E3.16082
G1 X103.548 Y95.341 E3.20089
G1 X104.438 Y96.097 E3.27463
G1 X103.826 Y96.198 E3.31378
G1 X103.596 Y96.300 E3.32967
G1 X103.398 Y96.455 E3.34556
G1 X103.245 Y96.655 E3.36145
G1 X103.147 Y96.887 E3.37734
G1 X103.075 Y97.367 E3.40800
G1 X102.383 Y96.718 E3.46787
G1 X101.492 Y96.228 E3.53209
G1 X100.508 Y95.975 E3.59623
G1 X100.858 Y95.769 F7800.000
G1 X104.394 Y98.294 F7800.000
G1 X104.911 Y97.770 E3.64273 F1800.000
G1 X105.189 Y97.291 E3.67769
G1 X105.438 Y97.828 E3.71508
G1 X105.696 Y98.591 E3.76592
G1 X105.155 Y98.412 E3.80192
G1 X104.420 Y98.362 E3.84842
G1 X104.475 Y98.508 E3.85827
G1 X104.233 Y98.707 E3.87804
G1 X103.940 Y99.106 E3.90929
G1 X103.603 Y98.069 E3.97812
G1 X104.026 Y98.160 E4.00541
G1 X104.339 Y98.148 E4.02517
G1 X104.367 Y98.224 E4.03029
G1 X104.696 Y98.692 F7800.000
G1 X102.800 Y96.424 F7800.000
G1 X102.800 Y96.424 F7800.000
G1 X104.683 Y100.532 F7800.000
G1 X105.385 Y100.308 E4.07679 F1800.000
G1 X105.883 Y99.995 E4.11390
G1 X105.727 Y101.429 E4.20498
G1 X105.302 Y100.990 E4.24356
G1 X104.675 Y100.605 E4.29006
G1 X104.656 Y100.759 E4.29991
G1 X104.349 Y100.823 E4.31967
G1 X103.897 Y101.043 E4.35143
G1 X104.081 Y100.081 E4.41329
G1 X104.702 Y100.377 E4.45674
G1 X104.692 Y100.458 E4.46186
G1 X104.766 Y101.025 F7800.000
G1 X103.584 Y101.980 F7800.000
G1 X103.988 Y102.520 E4.50441 F1800.000
G1 X103.900 Y102.648 E4.51427
G1 X104.625 Y102.776 E4.56077
G1 X105.180 Y102.733 E4.59594
G1 X104.848 Y103.285 E4.63666
G1 X104.393 Y103.884 E4.68410
G1 X104.234 Y103.341 E4.71979
G1 X103.858 Y102.708 E4.76629
G1 X103.769 Y102.837 E4.77615
G1 X103.048 Y102.629 E4.82357
G1 X103.536 Y102.038 E4.87198
G1 X103.683 Y102.471 F7800.000
G1 X102.157 Y104.192 F7800.000
G1 X102.019 Y104.264 E4.88184 F1800.000
G1 X101.476 Y103.744 E4.92932
G1 X102.256 Y103.435 E4.98227
G1 X102.360 Y104.085 E5.02382
G1 X102.222 Y104.158 E5.03368
G1 X102.805 Y104.608 E5.08017
G1 X103.351 Y104.842 E5.11771
G1 X102.078 Y105.518 E5.20872
G1 X102.197 Y104.927 E5.24677
G1 X102.161 Y104.266 E5.28853
G1 X102.105 Y104.044 F7800.000
G1 E3.28853 F2400.00000
G92 E0
G1 X102.800 Y96.424 F7800.000
G1 X102.779 Y96.205 F7800.000
G1 X102.710 Y95.865 F7800.000
G1 X102.727 Y95.863 F7800.000
G1 X103.039 Y96.101 F7800.000
G1 X103.113 Y96.112 F7800.000
G1 E2.00000 F2400.00000
G1 X102.550 Y95.767 E2.08829 F1800.000
G1 X102.079 Y95.513 E2.15999
G1 X101.431 Y95.206 E2.25598
G1 Z0.800 F7800.000
G1 E0.25598 F2400.00000
G92 E0
G1 X101.879 Y104.541 F7800.000
G1 E2.00000 F2400.00000
G1 X101.935 Y104.720 E2.00348 F900.000
G1 X101.945 Y104.909 E2.00697
G1 X101.908 Y105.093 E2.01045
G1 X101.826 Y105.263 E2.01394
G1 X101.705 Y105.407 E2.01743
G1 X101.551 Y105.517 E2.02091
G1 X101.375 Y105.584 E2.02439
G1 X101.188 Y105.606 E2.02788
G1 X101.001 Y105.581 E2.03136
G1 X100.827 Y105.510 E2.03485
G1 X100.675 Y105.397 E2.03833
G1 X100.556 Y105.251 E2.04182
G1 X100.478 Y105.080 E2.04530
G1 X100.444 Y104.894 E2.04879
G1 X100.458 Y104.706 E2.05227
G1 X100.518 Y104.527 E2.05576
G1 X100.620 Y104.369 E2.05924
G1 X100.759 Y104.242 E2.06273
G1 X100.925 Y104.152 E2.06621
G1 X101.108 Y104.107 E2.06970
G1 X101.297 Y104.109 E2.07318
G1 X101.479 Y104.158 E2.07667
G1 X101.643 Y104.250 E2.08016
G1 X101.779 Y104.380 E2.08364
G1 X101.839 Y104.477 E2.08574
G1 X102.065 Y104.566 F7800.000
G1 E0.08574 F2400.00000
G92 E0
G1 X102.764 Y96.510 F7800.000
G1 X102.764 Y96.510 F7800.000
G1 X99.540 Y104.706 F7800.000
G1 E2.00000 F2400.00000
G1 X99.553 Y104.894 E2.00348 F900.000
G1 X99.520 Y105.080 E2.00697
G1 X99.441 Y105.251 E2.01046
G1 X99.322 Y105.397 E2.01394
G1 X99.171 Y105.510 E2.01743
G1 X98.996 Y105.581 E2.02091
G1 X98.810 Y105.606 E2.02440
G1 X98.622 Y105.584 E2.02788
G1 X98.446 Y105.517 E2.03137
G1 X98.293 Y105.407 E2.03485
G1 X98.171 Y105.263 E2.03833
G1 X98.089 Y105.093 E2.04182
G1 X98.052 Y104.909 E2.04531
G1 X98.062 Y104.720 E2.04879
G1 X98.119 Y104.541 E2.05228
G1 X98.218 Y104.380 E2.05576
G1 X98.354 Y104.250 E2.05925
G1 X98.519 Y104.158 E2.06273
G1 X98.701 Y104.109 E2.06622
G1 X98.889 Y104.107 E2.06970
G1 X99.072 Y104.152 E2.07319
G1 X99.238 Y104.242 E2.07667
G1 X99.377 Y104.369 E2.08016
G1 X99.480 Y104.527 E2.08364
G1 X99.516 Y104.635 E2.08574
G1 X99.716 Y104.774 F7800.000
G1 X97.418 Y103.580 F7800.000
G1 X97.435 Y103.768 E2.08922 F900.000
G1 X97.405 Y103.954 E2.09271
G1 X97.330 Y104.126 E2.09619
G1 X97.214 Y104.275 E2.09968
G1 X97.065 Y104.390 E2.10316
G1 X96.892 Y104.465 E2.10665
G1 X96.705 Y104.494 E2.11013
G1 X96.518 Y104.476 E2.11362
G1 X96.341 Y104.411 E2.11710
G1 X96.185 Y104.305 E2.12059
G1 X96.061 Y104.163 E2.12407
G1 X95.975 Y103.995 E2.12756
G1 X95.935 Y103.811 E2.13104
G1 X95.941 Y103.623 E2.13453
G1 X95.994 Y103.442 E2.13801
G1 X96.090 Y103.280 E2.14150
G1 X96.224 Y103.147 E2.14498
G1 X96.387 Y103.051 E2.14847
G1 X96.568 Y102.999 E2.15195
G1 X96.756 Y102.994 E2.15544
G1 X96.940 Y103.035 E2.15892
G1 X97.108 Y103.121 E2.16241
G1 X97.249 Y103.246 E2.16589
G1 X97.354 Y103.402 E2.16938
G1 X97.393 Y103.509 E2.17148
G1 X97.595 Y103.644 F7800.000
G1 X96.076 Y101.784 F7800.000
G1 X96.050 Y101.970 E2.17496 F900.000
G1 X95.978 Y102.145 E2.17845
G1 X95.865 Y102.295 E2.18193
G1 X95.718 Y102.414 E2.18542
G1 X95.546 Y102.491 E2.18890
G1 X95.361 Y102.524 E2.19239
G1 X95.173 Y102.509 E2.19587
G1 X94.994 Y102.449 E2.19936
G1 X94.837 Y102.345 E2.20284
G1 X94.709 Y102.206 E2.20633
G1 X94.621 Y102.039 E2.20981
G1 X94.577 Y101.856 E2.21330
G1 X94.580 Y101.668 E2.21678
G1 X94.629 Y101.486 E2.22027
G1 X94.722 Y101.322 E2.22375
G1 X94.853 Y101.187 E2.22724
G1 X95.014 Y101.088 E2.23072
G1 X95.194 Y101.032 E2.23421
G1 X95.382 Y101.023 E2.23769
G1 X95.567 Y101.061 E2.24118
G1 X95.736 Y101.144 E2.24466
G1 X95.880 Y101.266 E2.24815
G1 X95.988 Y101.420 E2.25163
G1 X96.055 Y101.596 E2.25512
G1 X96.068 Y101.709 E2.25722
G1 X96.234 Y101.887 F7800.000
G1 X95.087 Y100.148 F7800.000
G1 X94.898 Y100.137 E2.26070 F900.000
G1 X94.719 Y100.079 E2.26419
G1 X94.559 Y99.979 E2.26767
G1 X94.430 Y99.842 E2.27116
G1 X94.338 Y99.678 E2.27464
G1 X94.290 Y99.495 E2.27813
G1 X94.289 Y99.307 E2.28161
G1 X94.335 Y99.124 E2.28510
G1 X94.425 Y98.958 E2.28858
G1 X94.554 Y98.820 E2.29207
G1 X94.712 Y98.719 E2.29555
G1 X94.891 Y98.659 E2.29904
G1 X95.079 Y98.647 E2.30252
G1 X95.265 Y98.681 E2.30601
G1 X95.436 Y98.761 E2.30949
G1 X95.581 Y98.880 E2.31298
G1 X95.693 Y99.032 E2.31646
G1 X95.763 Y99.207 E2.31995
G1 X95.788 Y99.394 E2.32343
G1 X95.765 Y99.581 E2.32692
G1 X95.697 Y99.756 E2.33040
G1 X95.586 Y99.909 E2.33389
G1 X95.442 Y100.030 E2.33737
G1 X95.272 Y100.111 E2.34086
G1 X95.160 Y100.133 E2.34295
G1 X94.997 Y100.313 F7800.000
G1 E0.34295 F2400.00000
G92 E0
G1 X101.294 Y95.752 F7800.000
G1 X101.294 Y95.752 F7800.000
G1 X95.950 Y97.909 F7800.000
G1 E2.00000 F2400.00000
G1 X95.761 Y97.902 E2.00349 F900.000
G1 X95.581 Y97.848 E2.00697
G1 X95.419 Y97.751 E2.01046
G1 X95.287 Y97.617 E2.01394
G1 X95.192 Y97.454 E2.01743
G1 X95.141 Y97.272 E2.02091
G1 X95.136 Y97.084 E2.02440
G1 X95.179 Y96.900 E2.02788
G1 X95.265 Y96.733 E2.03136
G1 X95.391 Y96.592 E2.03485
G1 X95.548 Y96.488 E2.03834
G1 X95.726 Y96.425 E2.04182
G1 X95.913 Y96.409 E2.04531
G1 X96.099 Y96.439 E2.04879
G1 X96.272 Y96.516 E2.05228
G1 X96.420 Y96.632 E2.05576
G1 X96.534 Y96.782 E2.05924
G1 X96.608 Y96.955 E2.06273
G1 X96.636 Y97.142 E2.06622
G1 X96.617 Y97.329 E2.06970
G1 X96.552 Y97.506 E2.07319
G1 X96.445 Y97.661 E2.07667
G1 X96.302 Y97.785 E2.08015
G1 X96.134 Y97.869 E2.08364
G1 X96.023 Y97.893 E2.08574
G1 X95.863 Y98.076 F7800.000
G1 E0.08574 F2400.00000
G92 E0
G1 X101.294 Y95.752 F7800.000
G1 X101.294 Y95.752 F7800.000
G1 X96.989 Y95.880 F7800.000
G1 E2.00000 F2400.00000
G1 X96.934 Y95.700 E2.00348 F900.000
G1 X96.926 Y95.512 E2.00697
G1 X96.965 Y95.327 E2.01045
G1 X97.048 Y95.158 E2.01394
G1 X97.171 Y95.015 E2.01742
G1 X97.326 Y94.907 E2.02091
G1 X97.503 Y94.841 E2.02440
G1 X97.690 Y94.821 E2.02788
G1 X97.876 Y94.849 E2.03137
G1 X98.050 Y94.921 E2.03485
G1 X98.201 Y95.035 E2.03834
G1 X98.318 Y95.183 E2.04182
G1 X98.395 Y95.355 E2.04531
G1 X98.427 Y95.541 E2.04879
G1 X98.411 Y95.728 E2.05227
G1 X98.350 Y95.907 E2.05576
G1 X98.245 Y96.064 E2.05924
G1 X98.106 Y96.190 E2.06273
G1 X97.939 Y96.278 E2.06622
G1 X97.755 Y96.321 E2.06970
G1 X97.567 Y96.317 E2.07318
G1 X97.385 Y96.267 E2.07667
G1 X97.222 Y96.173 E2.08015
G1 X97.087 Y96.041 E2.08364
G1 X97.028 Y95.944 E2.08574
G1 X96.802 Y95.853 F7800.000
G1 E0.08574 F2400.00000
G92 E0
G1 X101.294 Y95.752 F7800.000
G1 X101.294 Y95.752 F7800.000
G1 X99.260 Y95.141 F7800.000
G1 E2.00000 F2400.00000
G1 X99.248 Y94.953 E2.00349 F900.000
G1 X99.284 Y94.768 E2.00697
G1 X99.364 Y94.598 E2.01045
G1 X99.484 Y94.452 E2.01394
